X: 37267
T: Skelton's
R: mazurka
M: 3/4
K: Gmajor
DG GF GB|DB BA Bd|cB AG FG|AG FE D2|
DG GF GB|DB BA Bd|cB AG FA|G2 G2:|
d2 de dc|B2 G2 AB|c2 cd cB|A4 Bc|
d2 de dc|B2 G2 AB|cB AG FA|G2 G2:|

